images/logos/meduza.svg

<?xml version="1.0" encoding="UTF-8" standalone="no"?>
<!DOCTYPE svg PUBLIC "-//W3C//DTD SVG 1.1//EN" "http://www.w3.org/Graphics/SVG/1.1/DTD/svg11.dtd">
<svg width="300px" height="63px" viewBox="0 0 300 63" version="1.1" xmlns="http://www.w3.org/2000/svg" xmlns:xlink="http://www.w3.org/1999/xlink" xmlns:sketch="http://www.bohemiancoding.com/sketch/ns">
    <defs/>
    <g id="Page-1" stroke="none" stroke-width="1" fill="none" fill-rule="evenodd">
        <g id="meduza" fill="#000000">
            <path d="M32.5923868,27.384 L32.5923868,58.464 L46.8463462,63 L46.8463462,27.384 L56.0155599,27.384 L56.0155599,58.464 L70.1861628,63 L79.4387328,50.4 L70.2695196,50.4 L70.2695196,19.74 L56.0989163,14.784 L46.8463462,25.704 L46.8463462,19.74 L32.6757433,14.784 L23.4231731,25.704 L23.4231731,19.74 L9.25257018,14.784 L0,27.384 L9.16921368,27.384 L9.16921368,58.464 L23.4231731,63 L23.4231731,27.384 L32.5923868,27.384 L32.5923868,27.384 Z M185.634899,50.4 L185.634899,19.32 L171.380939,14.784 L171.380939,58.044 L185.551542,63 L194.804112,52.08 L194.804112,58.044 L208.974715,63 L218.227285,50.4 L209.058071,50.4 L209.058071,19.32 L194.804112,14.784 L194.804112,50.4 L185.634899,50.4 L185.634899,50.4 Z M290.830786,21 L276.910253,14.784 L260.405668,22.68 L276.910253,28.896 L254.237288,39.9 L254.237288,57.876 L268.491248,63 L276.910253,51.996 L276.910253,58.044 L291.164212,63 L300,50.316 L290.830786,50.316 L290.830786,21 L290.830786,21 Z M97.8605166,63 L114.198388,56.448 L97.8605166,50.316 L97.8605166,41.496 L119.283134,31.08 L107.113087,14.784 L83.6065572,26.124 L83.6065572,56.868 L97.8605166,63 L97.8605166,63 Z M251.153098,49.392 L233.814949,44.1 L250.069464,23.268 L229.73048,14.784 L219.06085,28.392 L236.482356,33.768 L219.894415,54.516 L240.483467,63 L251.153098,49.392 L251.153098,49.392 Z M268.491248,50.4 L268.491248,37.968 L276.910253,33.936 L276.910253,50.4 L268.491248,50.4 L268.491248,50.4 Z M97.8605166,22.932 L105.029175,32.844 L97.8605166,36.288 L97.8605166,22.932 L97.8605166,22.932 Z M122.95082,56.868 L137.204779,63 L160.627952,53.592 L160.627952,16.38 L122.95082,0 L122.95082,14.508 L146.373993,23.832 L146.373993,53.676 L137.204779,50.316 L137.204779,24.108 L122.95082,28.644 L122.95082,56.868 Z" id="Imported-Layers"/>
        </g>
    </g>
</svg>

<svg width="300" height="63" viewBox="0 0 300 63" xmlns="http://www.w3.org/2000/svg"><path d="M32.592 27.384v31.08L46.846 63V27.384h9.17v31.08L70.186 63l9.253-12.6h-9.17V19.74L56.1 14.784l-9.253 10.92V19.74l-14.17-4.956-9.253 10.92V19.74l-14.17-4.956L0 27.384h9.17v31.08L23.422 63V27.384h9.17zM185.635 50.4V19.32l-14.254-4.536v43.26L185.55 63l9.253-10.92v5.964L208.974 63l9.253-12.6h-9.169V19.32l-14.254-4.536V50.4h-9.17zM290.83 21l-13.92-6.216-16.505 7.896 16.504 6.216L254.237 39.9v17.976L268.491 63l8.42-11.004v6.048L291.163 63 300 50.316h-9.17V21zM97.86 63l16.337-6.552-16.337-6.132v-8.82l21.422-10.416-12.17-16.296-23.506 11.34v30.744L97.86 63zm153.292-13.608L233.815 44.1l16.254-20.832-20.339-8.484-10.67 13.608 17.422 5.376-16.588 20.748L240.484 63l10.67-13.608zm17.338 1.008V37.968l8.42-4.032V50.4h-8.42zM97.861 22.932l7.168 9.912-7.168 3.444V22.932zm25.09 33.936L137.205 63l23.423-9.408V16.38L122.951 0v14.508l23.423 9.324v29.844l-9.17-3.36V24.108l-14.253 4.536v28.224z" fill="#000" fill-rule="evenodd"/></svg>
